idea/new-frontend/src/shared/assets/images/actions/copyGreen.svg

<svg width="12" height="13" viewBox="0 0 12 13" fill="none" xmlns="http://www.w3.org/2000/svg">
<path fill-rule="evenodd" clip-rule="evenodd" d="M5 1.5H10C10.5761 1.5 11 1.92386 11 2.5V7.5C11 8.07614 10.5761 8.5 10 8.5H8V10.5C8 11.0761 7.57614 11.5 7 11.5H2C1.42386 11.5 1 11.0761 1 10.5V5.5C1 4.92386 1.42386 4.5 2 4.5H4V2.5C4 1.92386 4.42386 1.5 5 1.5ZM4 5.5H2V10.5H7V8.5H5C4.42386 8.5 4 8.07614 4 7.5V5.5ZM5 2.5V7.5H10V2.5H5Z" fill="#2BD071"/>
</svg>

<svg width="12" height="13" fill="none" xmlns="http://www.w3.org/2000/svg"><path fill-rule="evenodd" clip-rule="evenodd" d="M5 1.5h5c.576 0 1 .424 1 1v5c0 .576-.424 1-1 1H8v2c0 .576-.424 1-1 1H2c-.576 0-1-.424-1-1v-5c0-.576.424-1 1-1h2v-2c0-.576.424-1 1-1Zm-1 4H2v5h5v-2H5c-.576 0-1-.424-1-1v-2Zm1-3v5h5v-5H5Z" fill="#2BD071"/></svg>
